svg/floor_plan.svg

<svg xmlns="http://www.w3.org/2000/svg" viewBox="0 0 24 24"><path d="M10 5v5H9V5H5v8h4v-1h1v5H9v-3H5v5h7v-2h1v2h6v-2h2v4H3V3h18v12h-2v-5h-6v5h-1V9h7V5z"/></svg>

<?xml version="1.0" encoding="UTF-8"?><!DOCTYPE svg PUBLIC "-//W3C//DTD SVG 1.1//EN" "http://www.w3.org/Graphics/SVG/1.1/DTD/svg11.dtd"><svg xmlns="http://www.w3.org/2000/svg" xmlns:xlink="http://www.w3.org/1999/xlink" version="1.1" id="mdi-floor-plan" width="24" height="24" viewBox="0 0 24 24"><path d="M10,5V10H9V5H5V13H9V12H10V17H9V14H5V19H12V17H13V19H19V17H21V21H3V3H21V15H19V10H13V15H12V9H19V5H10Z" /></svg>
